styles/2/Numix/48/places/yellow-folder-recent.svg

<?xml version="1.0" encoding="UTF-8" standalone="no"?>
<svg
   xmlns:dc="http://purl.org/dc/elements/1.1/"
   xmlns:cc="http://creativecommons.org/ns#"
   xmlns:rdf="http://www.w3.org/1999/02/22-rdf-syntax-ns#"
   xmlns:svg="http://www.w3.org/2000/svg"
   xmlns="http://www.w3.org/2000/svg"
   xmlns:sodipodi="http://sodipodi.sourceforge.net/DTD/sodipodi-0.dtd"
   xmlns:inkscape="http://www.inkscape.org/namespaces/inkscape"
   width="48"
   viewBox="0 0 48 48"
   height="48"
   id="svg3031"
   version="1.1"
   inkscape:version="0.91 r"
   sodipodi:docname="yellow-folder-recent.svg">
  <metadata
     id="metadata3049">
    <rdf:RDF>
      <cc:Work
         rdf:about="">
        <dc:format>image/svg+xml</dc:format>
        <dc:type
           rdf:resource="http://purl.org/dc/dcmitype/StillImage" />
      </cc:Work>
    </rdf:RDF>
  </metadata>
  <defs
     id="defs3047" />
  <sodipodi:namedview
     pagecolor="#ffffff"
     bordercolor="#666666"
     borderopacity="1"
     objecttolerance="10"
     gridtolerance="10"
     guidetolerance="10"
     inkscape:pageopacity="0"
     inkscape:pageshadow="2"
     inkscape:window-width="1280"
     inkscape:window-height="998"
     id="namedview3045"
     showgrid="true"
     inkscape:zoom="13.906433"
     inkscape:cx="25.969517"
     inkscape:cy="19.386866"
     inkscape:window-x="0"
     inkscape:window-y="0"
     inkscape:window-maximized="1"
     inkscape:current-layer="svg3031">
    <inkscape:grid
       type="xygrid"
       id="grid2992" />
  </sodipodi:namedview>
  <path
     style="font-size:medium;font-style:normal;font-variant:normal;font-weight:normal;font-stretch:normal;text-indent:0;text-align:start;text-decoration:none;line-height:normal;letter-spacing:normal;word-spacing:normal;text-transform:none;direction:ltr;block-progression:tb;writing-mode:lr-tb;text-anchor:start;baseline-shift:baseline;color:#000000;fill:#ffca28;fill-opacity:1;fill-rule:nonzero;stroke:none;stroke-width:1;marker:none;visibility:visible;display:inline;overflow:visible;enable-background:accumulate;font-family:Sans;-inkscape-font-specification:Sans"
     d="m 6.000023,5.9999999 c -1,0 -2,1 -2,2 l 0,2 -1,0 c -1,0 -2.00556897,0.9492071 -2,2.0000001 l 0,28 c 1.28e-4,1.120734 1.037763,1.9999 2.1875,2 l 41.625,0 c 1.1875,0 2.1875,-1 2.1875,-2 l 0,-25 c 0,-1 -1,-2 -2,-2 l -2,0 0,-5.0000001 c 0,-1 -1,-2 -2,-2 z"
     id="path3770"
     inkscape:connector-curvature="0"
     sodipodi:nodetypes="sscsccccccccsss" />
  <path
     inkscape:connector-curvature="0"
     style="font-size:medium;font-style:normal;font-variant:normal;font-weight:normal;font-stretch:normal;text-indent:0;text-align:start;text-decoration:none;line-height:normal;letter-spacing:normal;word-spacing:normal;text-transform:none;direction:ltr;block-progression:tb;writing-mode:lr-tb;text-anchor:start;baseline-shift:baseline;color:#000000;fill:#000000;fill-opacity:0.32156863;fill-rule:nonzero;stroke:none;stroke-width:1;marker:none;visibility:visible;display:inline;overflow:visible;enable-background:accumulate;font-family:Sans;-inkscape-font-specification:Sans"
     d="m 6.000023,5.9999999 c -1,0 -2,1 -2,2 l 0,2 -1,0 c -1,0 -2.00556897,0.9492071 -2,2.0000001 l 0,28 c 1.28e-4,1.120734 1.037763,1.9999 2.1875,2 l 41.625,0 c 1.1875,0 2.1875,-1 2.1875,-2 l 0,-25 c 0,-1 -1,-2 -2,-2 l -2,0 0,-5.0000001 c 0,-1 -1,-2 -2,-2 l -35,0 z m -3,5.0000001 24,0 c 0.507314,0 1,0.494167 1,1 l 0,2 17,0 c 0.540858,0 1,0.471809 1,1 l 0,25 c 0,0.553755 -0.452115,1 -1,1 l -42,0 c -0.512725,0 -1,-0.446246 -1,-1 l 0,-28 c 0,-0.543318 0.479043,-1 1,-1 z"
     id="path3779" />
  <path
     style="line-height:normal;opacity:1;color:#000000;fill:#000000;fill-opacity:0.32157071999999998"
     d="M 17 20 L 17 25 L 22 25 L 20.28125 23.28125 C 21.303889 22.47845 22.599254 22 24 22 C 27.313708 22 30 24.6863 30 28 C 30 31.3137 27.313708 34 24 34 C 20.686292 34 18 31.3137 18 28 C 18 27.2993 18.122984 26.6251 18.34375 26 L 16.25 26 C 16.086295 26.6377 16 27.3112 16 28 C 16 32.4183 19.581723 36 24 36 C 28.418278 36 32 32.4183 32 28 C 32 23.5817 28.418278 20 24 20 C 22.043129 20 20.233805 20.67695 18.84375 21.84375 L 17 20 z M 23.90625 22.96875 A 1.0001 1.0001 0 0 0 23.78125 23 A 1.0001 1.0001 0 0 0 23 24 L 23 27.6875 A 1.0001 1.0001 0 0 0 23 27.78125 A 1.0001 1.0001 0 0 0 23.125 28.53125 A 1.0001 1.0001 0 0 0 23.15625 28.5625 A 1.0001 1.0001 0 0 0 23.1875 28.625 A 1.0001 1.0001 0 0 0 23.21875 28.65625 A 1.0001 1.0001 0 0 0 23.25 28.6875 A 1.0001 1.0001 0 0 0 23.28125 28.71875 A 1.0001 1.0001 0 0 0 23.3125 28.75 A 1.0001 1.0001 0 0 0 23.375 28.78125 A 1.0001 1.0001 0 0 0 23.40625 28.8125 A 1.0001 1.0001 0 0 0 23.4375 28.84375 A 1.0001 1.0001 0 0 0 23.5 28.875 A 1.0001 1.0001 0 0 0 23.625 28.9375 L 26.09375 30.375 A 1.0077822 1.0077822 0 0 0 27.09375 28.625 L 25 27.40625 L 25 24 A 1.0001 1.0001 0 0 0 23.90625 22.96875 z "
     id="path4105" />
</svg>

<svg xmlns="http://www.w3.org/2000/svg" viewBox="0 0 48 48">
 <path d="m 6 6 c -1 0 -2 1 -2 2 l 0 2 -1 0 c -1 0 -2.01 0.949 -2 2 l 0 28 c 0 1.121 1.038 2 2.188 2 l 41.625 0 c 1.188 0 2.188 -1 2.188 -2 l 0 -25 c 0 -1 -1 -2 -2 -2 l -2 0 0 -5 c 0 -1 -1 -2 -2 -2 z" style="visibility:visible;fill:#ffca28;fill-opacity:1;stroke:none;display:inline;color:#000;fill-rule:nonzero"/>
 <path d="m 6 6 c -1 0 -2 1 -2 2 l 0 2 -1 0 c -1 0 -2.01 0.949 -2 2 l 0 28 c 0 1.121 1.038 2 2.188 2 l 41.625 0 c 1.188 0 2.188 -1 2.188 -2 l 0 -25 c 0 -1 -1 -2 -2 -2 l -2 0 0 -5 c 0 -1 -1 -2 -2 -2 l -35 0 z m -3 5 24 0 c 0.507 0 1 0.494 1 1 l 0 2 17 0 c 0.541 0 1 0.472 1 1 l 0 25 c 0 0.554 -0.452 1 -1 1 l -42 0 c -0.513 0 -1 -0.446 -1 -1 l 0 -28 c 0 -0.543 0.479 -1 1 -1 z" style="visibility:visible;fill:#000;fill-opacity:0.322;stroke:none;display:inline;color:#000;fill-rule:nonzero"/>
 <path d="m 17 20 l 0 5 l 5 0 l -1.719 -1.719 c 1.023 -0.803 2.318 -1.281 3.719 -1.281 c 3.314 0 6 2.686 6 6 c 0 3.314 -2.686 6 -6 6 c -3.314 0 -6 -2.686 -6 -6 c 0 -0.701 0.123 -1.375 0.344 -2 l -2.094 0 c -0.164 0.638 -0.25 1.311 -0.25 2 c 0 4.418 3.582 8 8 8 c 4.418 0 8 -3.582 8 -8 c 0 -4.418 -3.582 -8 -8 -8 c -1.957 0 -3.766 0.677 -5.156 1.844 l -1.844 -1.844 z m 6.906 2.969 a 1 1 0 0 0 -0.125 0.031 a 1 1 0 0 0 -0.781 1 l 0 3.688 a 1 1 0 0 0 0 0.094 a 1 1 0 0 0 0.125 0.75 a 1 1 0 0 0 0.031 0.031 a 1 1 0 0 0 0.031 0.063 a 1 1 0 0 0 0.031 0.031 a 1 1 0 0 0 0.031 0.031 a 1 1 0 0 0 0.031 0.031 a 1 1 0 0 0 0.031 0.031 a 1 1 0 0 0 0.063 0.031 a 1 1 0 0 0 0.031 0.031 a 1 1 0 0 0 0.031 0.031 a 1 1 0 0 0 0.063 0.031 a 1 1 0 0 0 0.125 0.063 l 2.469 1.438 a 1.01 1.01 0 0 0 1 -1.75 l -2.094 -1.219 l 0 -3.406 a 1 1 0 0 0 -1.094 -1.031 z" style="fill:#000;opacity:1;fill-opacity:0.322;color:#000"/>
</svg>
